actions/22x22-light/database-index.svg

<svg xmlns="http://www.w3.org/2000/svg" viewBox="0 0 22 22">
 <defs id="defs3051">
   <style type="text/css" id="current-color-scheme">
     .ColorScheme-Text {
       color:#4d4d4d;
     }
     </style>
 </defs>
   <path
      style="fill:currentColor;fill-opacity:1;stroke:none"
      d="m3.5 3c-.277 0-.5.223-.5.5s.223.5.5.5h9c .277 0 .5-.223.5-.5s-.223-.5-.5-.5zm0 2c-.277 0-.5.223-.5.5s.223.5.5.5h5c .277 0 .5-.223.5-.5s-.223-.5-.5-.5zm13.5 2-4 7h2v5l4-7h-2zm-13.5 2c-.277 0-.5.223-.5.5s.223.5.5.5h7c .277 0 .5-.223.5-.5s-.223-.5-.5-.5zm0 2c-.277 0-.5.223-.5.5s.223.5.5.5h3c .277 0 .5-.223.5-.5s-.223-.5-.5-.5zm0 4c-.277 0-.5.223-.5.5s.223.5.5.5h6c .277 0 .5-.223.5-.5s-.223-.5-.5-.5zm0 2c-.277 0-.5.223-.5.5s.223.5.5.5h1c .277 0 .5-.223.5-.5s-.223-.5-.5-.5zm7 1c-.277 0-.5.223-.5.5s.223.5.5.5h1c .277 0 .5-.223.5-.5s-.223-.5-.5-.5z"
      class="ColorScheme-Text" />
</svg>

<svg xmlns="http://www.w3.org/2000/svg" viewBox="0 0 22 22">
  <defs id="defs3051">
    <style type="text/css" id="current-color-scheme">
      .ColorScheme-Text {
        color:#4d4d4d
      }
      </style>
  </defs>
 <path 
     style="fill:currentColor;fill-opacity:1;stroke:none"      
	 class="ColorScheme-Text"
        d="M 3.5,3 C 3.223,3 3,3.223 3,3.5 3,3.777 3.223,4 3.5,4 l 9,0 C 12.777,4 13,3.777 13,3.5 13,3.223 12.777,3 12.5,3 l -9,0 z m 0,2 C 3.223,5 3,5.223 3,5.5 3,5.777 3.223,6 3.5,6 l 5,0 C 8.777,6 9,5.777 9,5.5 9,5.223 8.777,5 8.5,5 l -5,0 z m 13.5,2 -4,7 2,0 0,5 4,-7 -2,0 0,-5 z M 3.5,9 C 3.223,9 3,9.223 3,9.5 3,9.777 3.223,10 3.5,10 l 7,0 C 10.777,10 11,9.777 11,9.5 11,9.223 10.777,9 10.5,9 l -7,0 z m 0,2 C 3.223,11 3,11.223 3,11.5 3,11.777 3.223,12 3.5,12 l 3,0 C 6.777,12 7,11.777 7,11.5 7,11.223 6.777,11 6.5,11 l -3,0 z m 0,4 C 3.223,15 3,15.223 3,15.5 3,15.777 3.223,16 3.5,16 l 6,0 C 9.777,16 10,15.777 10,15.5 10,15.223 9.777,15 9.5,15 l -6,0 z m 0,2 C 3.223,17 3,17.223 3,17.5 3,17.777 3.223,18 3.5,18 l 1,0 C 4.777,18 5,17.777 5,17.5 5,17.223 4.777,17 4.5,17 l -1,0 z m 7,1 c -0.277,0 -0.5,0.223 -0.5,0.5 0,0.277 0.223,0.5 0.5,0.5 l 1,0 C 11.777,19 12,18.777 12,18.5 12,18.223 11.777,18 11.5,18 l -1,0 z"
     />
</svg>
